X: 113
T: Feng caiyun
%%abc-version 2.0
%%abcx-abcm2ps-target-version 5.9.1 (29 Sep 2008)
%%abc-creator hum2abc beta
%%abcx-conversion-date 2013/10/02 07:52:29
%%abc-edited-by Helmut Schaffrath
%%humdrum-veritas 1565201704
%%humdrum-veritas-data 3728287039
%%continueall 1
%%barnumbers 0
L: 1/8
M: 2/4
K: G
d d B d [I:setbarnb 1]| 
e B A3/ B/ | 
d e/ g/ d/ e/ d/ B/ | 
A G E D | 
G G/ A/ B d/ e/ | 
B A/ B< D E/ | 
G F/ E/ A E | 
D4 |]  



